outputs/icons/toggle/star_outline_sharp.svg

<svg xmlns="http://www.w3.org/2000/svg" width="1200" height="1200" fill="none"><g clip-path="url(#a)"><path fill="#000" d="m1100 462-359.5-31L600 100 459.5 431.5 100 462l273 236.5-82 351.5 309-186.5L909 1050l-81.5-351.5zM600 770 412 883.5l50-214-166-144 219-19L600 305l85.5 202 219 19-166 144 50 214z"/></g><defs><clipPath id="a"><path fill="#fff" d="M0 0h1200v1200H0z"/></clipPath></defs></svg>

<svg width="1200" height="1200" viewBox="0 0 1200 1200" fill="none" xmlns="http://www.w3.org/2000/svg"><g clip-path="url(#clip0_125_1245)"><path d="M1100 462L740.5 431L600 100L459.5 431.5L100 462L373 698.5L291 1050L600 863.5L909 1050L827.5 698.5L1100 462ZM600 770L412 883.5L462 669.5L296 525.5L515 506.5L600 305L685.5 507L904.5 526L738.5 670L788.5 884L600 770Z" fill="#1D1E23"/></g><defs><clipPath id="clip0_125_1245"><path width="24" fill="white" d="M0 0H1200V1200H0V0z"/></clipPath></defs></svg>
